X: 144
M: 2/4
L: 1/8
K: G
|:\
ddde | d2B2 |\
dd ((3dcB) | A2 G2 ::\
g2 f2 | e2 d2 |
g2 f2 | e2 d2 |\
ddde | d2 B2 |\
ddgB | A2 G2 :|

